Adwaita++/devices/scalable/network-wireless-hotspot.svg

<?xml version="1.0" encoding="UTF-8" standalone="no"?>
<svg
   xmlns:dc="http://purl.org/dc/elements/1.1/"
   xmlns:cc="http://creativecommons.org/ns#"
   xmlns:rdf="http://www.w3.org/1999/02/22-rdf-syntax-ns#"
   xmlns:svg="http://www.w3.org/2000/svg"
   xmlns="http://www.w3.org/2000/svg"
   xmlns:xlink="http://www.w3.org/1999/xlink"
   xmlns:sodipodi="http://sodipodi.sourceforge.net/DTD/sodipodi-0.dtd"
   xmlns:inkscape="http://www.inkscape.org/namespaces/inkscape"
   width="256"
   height="256"
   version="1.1"
   viewBox="0 0 67.73 67.73"
   id="svg37"
   sodipodi:docname="network-wireless-hotspot.svg"
   inkscape:version="0.92.3 (2405546, 2018-03-11)">
  <metadata
     id="metadata41">
    <rdf:RDF>
      <cc:Work
         rdf:about="">
        <dc:format>image/svg+xml</dc:format>
        <dc:type
           rdf:resource="http://purl.org/dc/dcmitype/StillImage" />
        <dc:title />
      </cc:Work>
    </rdf:RDF>
  </metadata>
  <sodipodi:namedview
     pagecolor="#ffffff"
     bordercolor="#666666"
     borderopacity="1"
     objecttolerance="10"
     gridtolerance="10"
     guidetolerance="10"
     inkscape:pageopacity="0"
     inkscape:pageshadow="2"
     inkscape:window-width="1920"
     inkscape:window-height="1009"
     id="namedview39"
     showgrid="false"
     inkscape:zoom="3.2617188"
     inkscape:cx="73.274252"
     inkscape:cy="128"
     inkscape:window-x="0"
     inkscape:window-y="34"
     inkscape:window-maximized="1"
     inkscape:current-layer="g870" />
  <defs
     id="defs19">
    <linearGradient
       id="linearGradient4226"
       x1="529.655"
       x2="-35.31"
       y1="295.638"
       y2="295.638"
       gradientTransform="matrix(0 -.11988932 -.11988589 0 66.487288 293.07747)"
       gradientUnits="userSpaceOnUse">
      <stop
         style="stop-color:#999999"
         offset="0"
         id="stop2" />
      <stop
         style="stop-color:#b7b7b7"
         offset=".613"
         id="stop4" />
      <stop
         style="stop-color:#dbdbdb"
         offset="1"
         id="stop6" />
    </linearGradient>
    <linearGradient
       id="linearGradient4358"
       x1="88"
       x2="488"
       y1="88"
       y2="488"
       gradientUnits="userSpaceOnUse">
      <stop
         style="stop-color:#000000;stop-opacity:.58823532"
         offset="0"
         id="stop9" />
      <stop
         style="stop-color:#000000;stop-opacity:0"
         offset=".88"
         id="stop11" />
      <stop
         style="stop-color:#000000"
         offset="1"
         id="stop13" />
    </linearGradient>
    <filter
       id="filter4346"
       x="-.01"
       y="-.01"
       width="1.026"
       height="1.022"
       style="color-interpolation-filters:sRGB">
      <feGaussianBlur
         stdDeviation="2.12"
         id="feGaussianBlur16" />
    </filter>
    <linearGradient
       inkscape:collect="always"
       xlink:href="#linearGradient974"
       id="linearGradient992"
       gradientUnits="userSpaceOnUse"
       x1="48"
       y1="44"
       x2="464"
       y2="44"
       gradientTransform="matrix(0.11747916,0,0,0.1180878,3.4137181,28.679904)" />
    <linearGradient
       id="linearGradient974"
       inkscape:collect="always">
      <stop
         id="stop962"
         offset="0"
         style="stop-color:#babdb6;stop-opacity:1" />
      <stop
         style="stop-color:#f6f5f4;stop-opacity:1"
         offset="0.04166667"
         id="stop964" />
      <stop
         id="stop966"
         offset="0.08333334"
         style="stop-color:#d5d3cf;stop-opacity:1" />
      <stop
         style="stop-color:#deddda;stop-opacity:1"
         offset="0.91666669"
         id="stop968" />
      <stop
         id="stop970"
         offset="0.95833331"
         style="stop-color:#f6f5f4;stop-opacity:1" />
      <stop
         id="stop972"
         offset="1"
         style="stop-color:#babdb6;stop-opacity:1" />
    </linearGradient>
    <filter
       inkscape:collect="always"
       style="color-interpolation-filters:sRGB"
       id="filter12480"
       x="-0.012"
       width="1.024"
       y="-0.012"
       height="1.024">
      <feGaussianBlur
         inkscape:collect="always"
         stdDeviation="2.08"
         id="feGaussianBlur12482" />
    </filter>
    <clipPath
       id="a">
      <rect
         id="rect836"
         stroke-width="2"
         fill="#bebebe"
         overflow="visible"
         color="#bebebe"
         height="6.375"
         style="marker:none"
         width="3.825"
         x="26.85"
         y="220.75" />
    </clipPath>
    <clipPath
       id="b">
      <rect
         id="rect839"
         stroke-width="2"
         fill="#bebebe"
         overflow="visible"
         color="#bebebe"
         height="5.313"
         style="marker:none"
         width="2.898"
         x="26.966"
         y="221.282" />
    </clipPath>
    <clipPath
       id="c">
      <rect
         id="rect842"
         stroke-width="2"
         fill="#bebebe"
         overflow="visible"
         color="#bebebe"
         height="4.878"
         style="marker:none"
         width="1.876"
         x="26.999"
         y="221.502" />
    </clipPath>
  </defs>
  <path
     style="display:inline;opacity:0.4;fill:#20221f;fill-opacity:1;stroke:none;stroke-width:2.24625039;stroke-linecap:butt;stroke-linejoin:miter;stroke-miterlimit:4;stroke-dasharray:none;stroke-dashoffset:0;stroke-opacity:1;marker:none;marker-start:none;marker-mid:none;marker-end:none;paint-order:normal;filter:url(#filter12480);enable-background:new"
     d="m 104,-186 c -17.728,0 -32,14.272 -32,32 v 80 200 72 c 0,17.728 14.272,32 32,32 h 352 c 17.728,0 32,-14.272 32,-32 v -72 -200 -80 c 0,-17.728 -14.272,-32 -32,-32 z"
     id="rect972-0"
     inkscape:connector-curvature="0"
     transform="matrix(0.11747916,0,0,0.1180878,0.59420645,31.514059)" />
  <rect
     ry="3.7788095"
     rx="3.7593331"
     y="18.76053"
     x="9.0527296"
     height="39.677498"
     width="48.87133"
     id="rect972"
     style="display:inline;opacity:1;fill:url(#linearGradient992);fill-opacity:1;stroke:none;stroke-width:0.26457033;stroke-linecap:butt;stroke-linejoin:miter;stroke-miterlimit:4;stroke-dasharray:none;stroke-dashoffset:0;stroke-opacity:1;marker:none;marker-start:none;marker-mid:none;marker-end:none;paint-order:normal;enable-background:new" />
  <path
     style="display:inline;opacity:1;fill:#ffa348;fill-opacity:1;stroke:none;stroke-width:1;stroke-linecap:butt;stroke-linejoin:miter;stroke-miterlimit:4;stroke-dasharray:none;stroke-dashoffset:0;stroke-opacity:1;marker:none;marker-start:none;marker-mid:none;marker-end:none;paint-order:normal;enable-background:new"
     d="M 48.425781 35.203125 C 40.553874 35.203125 34.216797 41.573641 34.216797 49.486328 L 34.216797 75.732422 C 34.21647 75.772564 34.210938 75.81134 34.210938 75.851562 L 34.210938 200.82617 C 34.210937 208.73885 40.548024 215.10938 48.419922 215.10938 L 204.7207 215.10938 C 212.5926 215.10938 218.92969 208.73885 218.92969 200.82617 L 218.92969 167.31836 L 218.93555 167.31836 L 218.93555 49.486328 C 218.93555 41.573641 212.59847 35.203125 204.72656 35.203125 L 48.425781 35.203125 z "
     transform="scale(0.26457031)"
     id="rect974" />
  <g
     id="g870"
     transform="matrix(0.26457031,0,0,0.26457031,31.036242,19.466836)">
    <g
       style="fill:#000000;fill-opacity:0.99000001;opacity:0.3"
       transform="matrix(10.719921,0,0,10.719921,-76.550337,-37.733992)"
       id="g882">
      <path
         inkscape:connector-curvature="0"
         transform="matrix(0,-0.78431,0.94118,0,-202.765,31.059)"
         clip-path="url(#a)"
         d="m 27.18,220.508 a 1.164,1.164 0 0 0 -0.81,1.998 c 0.379,0.38 0.59,0.894 0.59,1.432 0,0.537 -0.211,1.051 -0.59,1.431 a 1.164,1.164 0 1 0 1.644,1.645 4.352,4.352 0 0 0 1.275,-3.077 c 0,-1.153 -0.46,-2.26 -1.275,-3.076 a 1.164,1.164 0 0 0 -0.834,-0.353 z"
         style="color:#000000;font-weight:400;line-height:normal;font-family:sans-serif;font-variant-ligatures:normal;font-variant-position:normal;font-variant-caps:normal;font-variant-numeric:normal;font-variant-alternates:normal;font-feature-settings:normal;text-indent:0;text-align:start;text-decoration:none;text-decoration-line:none;text-decoration-style:solid;text-decoration-color:#000000;text-transform:none;text-orientation:mixed;white-space:normal;shape-padding:0;overflow:visible;isolation:auto;mix-blend-mode:normal;fill:#000000;fill-opacity:0.99000001"
         font-weight="400"
         overflow="visible"
         id="path874" />
      <path
         inkscape:connector-curvature="0"
         transform="matrix(0,-1.72549,1.88219,0,-413.493,54.529)"
         clip-path="url(#b)"
         d="m 27.186,221.123 a 0.555,0.555 0 0 0 -0.387,0.953 2.632,2.632 0 0 1 0,3.723 0.55507882,0.55507882 0 1 0 0.785,0.785 3.743,3.743 0 0 0 0,-5.293 0.555,0.555 0 0 0 -0.398,-0.168 z"
         style="color:#000000;font-weight:400;line-height:normal;font-family:sans-serif;font-variant-ligatures:normal;font-variant-position:normal;font-variant-caps:normal;font-variant-numeric:normal;font-variant-alternates:normal;font-feature-settings:normal;text-indent:0;text-align:start;text-decoration:none;text-decoration-line:none;text-decoration-style:solid;text-decoration-color:#000000;text-transform:none;text-orientation:mixed;white-space:normal;shape-padding:0;overflow:visible;isolation:auto;mix-blend-mode:normal;fill:#000000;fill-opacity:0.99000001"
         font-weight="400"
         overflow="visible"
         id="path876" />
      <path
         inkscape:connector-curvature="0"
         transform="matrix(0,-2.66667,2.86852,0,-634.374,78)"
         clip-path="url(#c)"
         d="m 27.188,221.318 a 0.362,0.362 0 0 0 -0.252,0.621 2.825,2.825 0 0 1 0,3.997 0.362,0.362 0 1 0 0.511,0.511 3.55,3.55 0 0 0 0,-5.02 0.362,0.362 0 0 0 -0.26,-0.109 z"
         style="color:#000000;font-weight:400;line-height:normal;font-family:sans-serif;font-variant-ligatures:normal;font-variant-position:normal;font-variant-caps:normal;font-variant-numeric:normal;font-variant-alternates:normal;font-feature-settings:normal;text-indent:0;text-align:start;text-decoration:none;text-decoration-line:none;text-decoration-style:solid;text-decoration-color:#000000;text-transform:none;text-orientation:mixed;white-space:normal;shape-padding:0;overflow:visible;isolation:auto;mix-blend-mode:normal;fill:#000000;fill-opacity:0.99000001"
         font-weight="400"
         overflow="visible"
         id="path878" />
      <path
         style="fill:#000000;fill-opacity:0.99000001"
         inkscape:connector-curvature="0"
         d="m 10,13 a 2,2 0 0 1 -2,2 2,2 0 0 1 -2,-2 2,2 0 0 1 2,-2 2,2 0 0 1 2,2 z"
         id="path880" />
    </g>
    <g
       id="g855"
       transform="matrix(10.719921,0,0,10.719921,-76.550337,-39.733992)"
       style="fill:#ffffff;fill-opacity:0.98431373">
      <path
         id="path847"
         overflow="visible"
         font-weight="400"
         style="color:#000000;font-weight:400;line-height:normal;font-family:sans-serif;font-variant-ligatures:normal;font-variant-position:normal;font-variant-caps:normal;font-variant-numeric:normal;font-variant-alternates:normal;font-feature-settings:normal;text-indent:0;text-align:start;text-decoration:none;text-decoration-line:none;text-decoration-style:solid;text-decoration-color:#000000;text-transform:none;text-orientation:mixed;white-space:normal;shape-padding:0;overflow:visible;isolation:auto;mix-blend-mode:normal;fill:#ffffff;fill-opacity:0.98431373"
         d="m 27.18,220.508 a 1.164,1.164 0 0 0 -0.81,1.998 c 0.379,0.38 0.59,0.894 0.59,1.432 0,0.537 -0.211,1.051 -0.59,1.431 a 1.164,1.164 0 1 0 1.644,1.645 4.352,4.352 0 0 0 1.275,-3.077 c 0,-1.153 -0.46,-2.26 -1.275,-3.076 a 1.164,1.164 0 0 0 -0.834,-0.353 z"
         clip-path="url(#a)"
         transform="matrix(0,-0.78431,0.94118,0,-202.765,31.059)"
         inkscape:connector-curvature="0" />
      <path
         id="path849"
         overflow="visible"
         font-weight="400"
         style="color:#000000;font-weight:400;line-height:normal;font-family:sans-serif;font-variant-ligatures:normal;font-variant-position:normal;font-variant-caps:normal;font-variant-numeric:normal;font-variant-alternates:normal;font-feature-settings:normal;text-indent:0;text-align:start;text-decoration:none;text-decoration-line:none;text-decoration-style:solid;text-decoration-color:#000000;text-transform:none;text-orientation:mixed;white-space:normal;shape-padding:0;overflow:visible;isolation:auto;mix-blend-mode:normal;fill:#ffffff;fill-opacity:0.98431373"
         d="m 27.186,221.123 a 0.555,0.555 0 0 0 -0.387,0.953 2.632,2.632 0 0 1 0,3.723 0.55507882,0.55507882 0 1 0 0.785,0.785 3.743,3.743 0 0 0 0,-5.293 0.555,0.555 0 0 0 -0.398,-0.168 z"
         clip-path="url(#b)"
         transform="matrix(0,-1.72549,1.88219,0,-413.493,54.529)"
         inkscape:connector-curvature="0" />
      <path
         id="path851"
         overflow="visible"
         font-weight="400"
         style="color:#000000;font-weight:400;line-height:normal;font-family:sans-serif;font-variant-ligatures:normal;font-variant-position:normal;font-variant-caps:normal;font-variant-numeric:normal;font-variant-alternates:normal;font-feature-settings:normal;text-indent:0;text-align:start;text-decoration:none;text-decoration-line:none;text-decoration-style:solid;text-decoration-color:#000000;text-transform:none;text-orientation:mixed;white-space:normal;shape-padding:0;overflow:visible;isolation:auto;mix-blend-mode:normal;fill:#ffffff;fill-opacity:0.98431373"
         d="m 27.188,221.318 a 0.362,0.362 0 0 0 -0.252,0.621 2.825,2.825 0 0 1 0,3.997 0.362,0.362 0 1 0 0.511,0.511 3.55,3.55 0 0 0 0,-5.02 0.362,0.362 0 0 0 -0.26,-0.109 z"
         clip-path="url(#c)"
         transform="matrix(0,-2.66667,2.86852,0,-634.374,78)"
         inkscape:connector-curvature="0" />
      <path
         id="path853"
         d="m 10,13 a 2,2 0 0 1 -2,2 2,2 0 0 1 -2,-2 2,2 0 0 1 2,-2 2,2 0 0 1 2,2 z"
         inkscape:connector-curvature="0"
         style="fill:#ffffff;fill-opacity:0.98431373" />
    </g>
  </g>
</svg>

<svg height="256" viewBox="0 0 67.73 67.73" width="256" xmlns="http://www.w3.org/2000/svg" xmlns:xlink="http://www.w3.org/1999/xlink">
  <linearGradient id="linearGradient992" gradientTransform="matrix(.11747916 0 0 .1180878 3.413718 28.679904)" gradientUnits="userSpaceOnUse" x1="48" x2="464" y1="44" y2="44">
    <stop offset="0" stop-color="#babdb6"/>
    <stop offset=".04166667" stop-color="#f6f5f4"/>
    <stop offset=".08333334" stop-color="#d5d3cf"/>
    <stop offset=".91666669" stop-color="#deddda"/>
    <stop offset=".95833331" stop-color="#f6f5f4"/>
    <stop offset="1" stop-color="#babdb6"/>
  </linearGradient>
  <filter id="filter12480" color-interpolation-filters="sRGB" height="1.024" width="1.024" x="-.012" y="-.012">
    <feGaussianBlur stdDeviation="2.08"/>
  </filter>
  <clipPath id="a">
    <path d="m26.85 220.75h3.825v6.375h-3.825z"/>
  </clipPath>
  <clipPath id="b">
    <path d="m26.966 221.282h2.898v5.313h-2.898z"/>
  </clipPath>
  <clipPath id="c">
    <path d="m26.999 221.502h1.876v4.878h-1.876z"/>
  </clipPath>
  <path d="m104-186c-17.728 0-32 14.272-32 32v80 200 72c0 17.728 14.272 32 32 32h352c17.728 0 32-14.272 32-32v-72-200-80c0-17.728-14.272-32-32-32z" fill="#20221f" filter="url(#filter12480)" opacity=".4" transform="matrix(.11747916 0 0 .1180878 .594206 31.514059)"/>
  <rect fill="url(#linearGradient992)" height="39.677498" rx="3.759333" ry="3.77881" width="48.87133" x="9.05273" y="18.76053"/>
  <path d="m48.425781 35.203125c-7.871907 0-14.208984 6.370516-14.208984 14.283203v26.246094c-.000327.040142-.005859.078918-.005859.11914v124.974608c-.000001 7.91268 6.337086 14.28321 14.208984 14.28321h156.300778c7.8719 0 14.20899-6.37053 14.20899-14.28321v-33.50781h.00586v-117.832032c0-7.912687-6.33708-14.283203-14.20899-14.283203h-156.300779z" fill="#ffa348" transform="scale(.26457031)"/>
  <g fill-opacity=".99" opacity=".3" transform="matrix(2.83617282215 0 0 2.83617282215 10.78329560931 9.48354203902)">
    <path clip-path="url(#a)" d="m27.18 220.508a1.164 1.164 0 0 0 -.81 1.998c.379.38.59.894.59 1.432 0 .537-.211 1.051-.59 1.431a1.164 1.164 0 1 0 1.644 1.645 4.352 4.352 0 0 0 1.275-3.077c0-1.153-.46-2.26-1.275-3.076a1.164 1.164 0 0 0 -.834-.353z" transform="matrix(0 -.78431 .94118 0 -202.765 31.059)"/>
    <path clip-path="url(#b)" d="m27.186 221.123a.555.555 0 0 0 -.387.953 2.632 2.632 0 0 1 0 3.723.55507882.55507882 0 1 0 .785.785 3.743 3.743 0 0 0 0-5.293.555.555 0 0 0 -.398-.168z" transform="matrix(0 -1.72549 1.88219 0 -413.493 54.529)"/>
    <path clip-path="url(#c)" d="m27.188 221.318a.362.362 0 0 0 -.252.621 2.825 2.825 0 0 1 0 3.997.362.362 0 1 0 .511.511 3.55 3.55 0 0 0 0-5.02.362.362 0 0 0 -.26-.109z" transform="matrix(0 -2.66667 2.86852 0 -634.374 78)"/>
    <path d="m10 13a2 2 0 0 1 -2 2 2 2 0 0 1 -2-2 2 2 0 0 1 2-2 2 2 0 0 1 2 2z"/>
  </g>
  <g fill="#fff" fill-opacity=".984314" transform="matrix(2.83617282215 0 0 2.83617282215 10.78329560931 8.95440141902)">
    <path clip-path="url(#a)" d="m27.18 220.508a1.164 1.164 0 0 0 -.81 1.998c.379.38.59.894.59 1.432 0 .537-.211 1.051-.59 1.431a1.164 1.164 0 1 0 1.644 1.645 4.352 4.352 0 0 0 1.275-3.077c0-1.153-.46-2.26-1.275-3.076a1.164 1.164 0 0 0 -.834-.353z" transform="matrix(0 -.78431 .94118 0 -202.765 31.059)"/>
    <path clip-path="url(#b)" d="m27.186 221.123a.555.555 0 0 0 -.387.953 2.632 2.632 0 0 1 0 3.723.55507882.55507882 0 1 0 .785.785 3.743 3.743 0 0 0 0-5.293.555.555 0 0 0 -.398-.168z" transform="matrix(0 -1.72549 1.88219 0 -413.493 54.529)"/>
    <path clip-path="url(#c)" d="m27.188 221.318a.362.362 0 0 0 -.252.621 2.825 2.825 0 0 1 0 3.997.362.362 0 1 0 .511.511 3.55 3.55 0 0 0 0-5.02.362.362 0 0 0 -.26-.109z" transform="matrix(0 -2.66667 2.86852 0 -634.374 78)"/>
    <path d="m10 13a2 2 0 0 1 -2 2 2 2 0 0 1 -2-2 2 2 0 0 1 2-2 2 2 0 0 1 2 2z"/>
  </g>
</svg>
